X: 114
T: My Lodging Is on the Cold Ground
N:"Slow with feeling"
B:O'Neill's 114
Z:Transcribed by henrik.norbeck@mailbox.swipnet.se
M:6/8
L:1/8
K:G
(B/>A/)|(G>AG) (GBd)|(ceg) (g2 f/>e/)|(d>cB) {AB}(AG>A)|B3- B2(B/>A/)|
(G>AG) (GBd)|(ceg) Hg2 (f/e/)|(dgB) (A{BA}GA)|G3- G2||
(d/>c/)|(Bd).g g2 d/d/|(ec).g g2 (f/e/)|(d>cB) {AB}(AG>A)|B3- B2(B/>A/)|
(G>AG) (GBd)|(ceg) Hg2 (f/e/)|(dgB) (A{BA}GA)|G3- G2||


